src/status/symbolic/network-wired-no-route-symbolic.svg

<?xml version="1.0" encoding="UTF-8" standalone="no"?>
<svg
   width="16"
   height="16"
   version="1.1"
   id="svg7"
   sodipodi:docname="network-wired-no-route-symbolic.svg"
   inkscape:version="1.3.2 (091e20ef0f, 2023-11-25)"
   xmlns:inkscape="http://www.inkscape.org/namespaces/inkscape"
   xmlns:sodipodi="http://sodipodi.sourceforge.net/DTD/sodipodi-0.dtd"
   xmlns="http://www.w3.org/2000/svg"
   xmlns:svg="http://www.w3.org/2000/svg">
  <defs
     id="defs7" />
  <sodipodi:namedview
     id="namedview7"
     pagecolor="#ffffff"
     bordercolor="#111111"
     borderopacity="1"
     inkscape:showpageshadow="0"
     inkscape:pageopacity="0"
     inkscape:pagecheckerboard="1"
     inkscape:deskcolor="#d1d1d1"
     inkscape:zoom="35.487922"
     inkscape:cx="8.8339915"
     inkscape:cy="9.7075281"
     inkscape:window-width="1920"
     inkscape:window-height="1011"
     inkscape:window-x="0"
     inkscape:window-y="0"
     inkscape:window-maximized="1"
     inkscape:current-layer="svg7" />
  <g
     transform="translate(0,2)"
     fill="#363636"
     stroke-width="1.5"
     id="g7"
     style="display:none">
    <g
       transform="matrix(0.43738,0,0,0.5,-145.4,-266.68)"
       id="g3">
      <g
         transform="matrix(0,-1.0825,-1.0825,0,1464.7,557.15)"
         fill="#363636"
         stroke-width="1.5"
         id="g2">
        <g
           transform="matrix(1.1827e-4,0.032712,-0.032712,1.1827e-4,18.269,1034.4)"
           fill="#363636"
           stroke-width="1.5"
           id="g1">
          <path
             d="M 345.44,248.29 151.15,442.57 c -12.359,12.365 -32.397,12.365 -44.75,0 -12.354,-12.354 -12.354,-32.391 0,-44.744 L 278.31,225.916 106.4,54.016 c -12.354,-12.359 -12.354,-32.394 0,-44.748 12.354,-12.359 32.391,-12.359 44.75,0 l 194.29,194.28 c 6.177,6.18 9.262,14.271 9.262,22.366 0,8.099 -3.091,16.196 -9.267,22.373 z"
             fill="#363636"
             stroke-width="1.5"
             id="path1" />
        </g>
      </g>
    </g>
    <g
       transform="matrix(-0.43738,0,0,-0.5,161.4,278.68)"
       id="g6">
      <g
         transform="matrix(0,-1.0825,-1.0825,0,1464.7,557.15)"
         fill="#363636"
         stroke-width="1.5"
         id="g5">
        <g
           transform="matrix(1.1827e-4,0.032712,-0.032712,1.1827e-4,18.269,1034.4)"
           fill="#363636"
           stroke-width="1.5"
           id="g4">
          <path
             d="M 345.44,248.29 151.15,442.57 c -12.359,12.365 -32.397,12.365 -44.75,0 -12.354,-12.354 -12.354,-32.391 0,-44.744 L 278.31,225.916 106.4,54.016 c -12.354,-12.359 -12.354,-32.394 0,-44.748 12.354,-12.359 32.391,-12.359 44.75,0 l 194.29,194.28 c 6.177,6.18 9.262,14.271 9.262,22.366 0,8.099 -3.091,16.196 -9.267,22.373 z"
             fill="#363636"
             stroke-width="1.5"
             id="path3" />
        </g>
      </g>
    </g>
  </g>
  <path
     d="m 7.9937155,5.7345623 c 0.7993711,0 1.4491584,0.2378676 1.9498365,0.7122294 0.500702,0.4655735 0.750215,1.062546 0.750215,1.7916956 0,0.3162331 -0.08318,0.6372796 -0.250071,0.962301 C 10.276791,9.5258096 10.129128,9.7566515 9.9973632,9.8971915 9.8743882,10.028955 9.697127,10.202338 9.4687283,10.41316 l -0.063305,0.06648 c -0.5358433,0.483134 -0.8040386,0.963464 -0.8040386,1.446602 v 0.528635 H 7.3605687 v -0.620432 c 0,-0.395292 0.08317,-0.731848 0.2500716,-1.012953 C 7.7775451,10.531612 8.0721538,10.191895 8.4937979,9.8053798 8.7309727,9.5857695 8.8973063,9.4233134 8.9939412,9.3179025 9.0993522,9.2037044 9.2012017,9.0521748 9.2978244,8.8589172 9.4032367,8.6568835 9.456099,8.4493069 9.456099,8.2384849 9.456099,7.8344053 9.3239462,7.5094811 9.0604186,7.2635181 8.8056795,7.0175549 8.45044,6.8931451 7.9936547,6.8931451 c -0.7554537,0 -1.2731492,0.4228839 -1.5541805,1.2662207 L 5.3062328,7.6845422 C 5.4907021,7.1838399 5.807859,6.7345059 6.2558801,6.3391903 6.7126653,5.9351106 7.2909672,5.7345842 7.9937277,5.7345842 Z m -0.012642,7.9325687 c 0.2547394,0 0.4661812,0.08704 0.6330862,0.262736 0.1756808,0.175694 0.2627374,0.387124 0.2627374,0.633087 0,0.245963 -0.08705,0.457405 -0.2627374,0.633086 -0.166905,0.175681 -0.378359,0.262738 -0.6330983,0.262738 -0.2547393,0 -0.4700709,-0.08704 -0.6457641,-0.262738 -0.1669047,-0.175694 -0.2500715,-0.387123 -0.2500715,-0.633086 0,-0.245963 0.08317,-0.457405 0.2500716,-0.633087 0.175681,-0.17568 0.3910127,-0.262736 0.6457641,-0.262736 z"
     enable-background="new"
     fill="#363636"
     id="path7"
     style="display:inline;stroke-width:1.21554" />
  <path
     id="path1-3"
     d="M 6.2857143,0 C 5.6525721,0 5.1428571,0.50971497 5.1428571,1.1428571 v 3.4285715 c 0,0.6331421 0.509715,1.1428571 1.1428572,1.1428571 h 0.098214 A 3.1626259,3.3181329 0 0 1 8,5.2410714 3.1626259,3.3181329 0 0 1 9.625,5.7142857 h 0.089286 c 0.633141,0 1.142857,-0.509715 1.142857,-1.1428571 V 1.1428571 C 10.857143,0.50971497 10.347427,0 9.7142857,0 Z m 0,1.1428571 H 9.7142857 V 4.5714286 H 8.5714286 7.4285714 6.2857143 Z M 4.5714286,6.8571429 c -1.2662845,0 -2.2857143,1.0194298 -2.2857143,2.2857142 V 10.285714 H 1.1428571 C 0.50971497,10.285714 0,10.79543 0,11.428571 v 3.428572 C 0,15.490285 0.50971497,16 1.1428571,16 h 3.4285715 c 0.6331421,0 1.1428571,-0.509715 1.1428571,-1.142857 v -3.428572 c 0,-0.633141 -0.509715,-1.142857 -1.1428571,-1.142857 H 3.4285714 V 9.1428571 C 3.4285714,8.509715 3.9382864,8 4.5714286,8 H 4.8883929 A 3.1626259,3.3181329 0 0 1 5.2924107,6.8571429 Z m 6.1428574,0 A 3.1626259,3.3181329 0 0 1 11.118304,8 h 0.310267 c 0.633142,0 1.142858,0.509715 1.142858,1.1428571 v 1.1428569 h -1.142858 c -0.633141,0 -1.142857,0.509716 -1.142857,1.142857 v 3.428572 C 10.285714,15.490285 10.79543,16 11.428571,16 h 3.428572 C 15.490285,16 16,15.490285 16,14.857143 V 11.428571 C 16,10.79543 15.490285,10.285714 14.857143,10.285714 H 13.714286 V 9.1428571 c 0,-1.2662844 -1.01943,-2.2857142 -2.285715,-2.2857142 z M 1.1428571,11.428571 h 3.4285715 v 3.428572 H 1.1428571 Z m 10.2857139,0 h 3.428572 v 3.428572 h -3.428572 z"
     style="opacity:0.35;fill:#363636;fill-opacity:1;stroke-width:1.14286" />
</svg>

<?xml version="1.0" encoding="UTF-8"?>
<svg id="svg7" width="16" height="16" version="1.1" xmlns="http://www.w3.org/2000/svg">
 <g id="g7" transform="translate(0,2)" display="none" fill="#363636" stroke-width="1.5">
  <g id="g3" transform="matrix(.43738 0 0 .5 -145.4 -266.68)">
   <g id="g2" transform="matrix(0,-1.0825,-1.0825,0,1464.7,557.15)" fill="#363636" stroke-width="1.5">
    <g id="g1" transform="matrix(.00011827 .032712 -.032712 .00011827 18.269 1034.4)" fill="#363636" stroke-width="1.5">
     <path id="path1" d="m345.44 248.29-194.29 194.28c-12.359 12.365-32.397 12.365-44.75 0-12.354-12.354-12.354-32.391 0-44.744l171.91-171.91-171.91-171.9c-12.354-12.359-12.354-32.394 0-44.748 12.354-12.359 32.391-12.359 44.75 0l194.29 194.28c6.177 6.18 9.262 14.271 9.262 22.366 0 8.099-3.091 16.196-9.267 22.373z" fill="#363636" stroke-width="1.5"/>
    </g>
   </g>
  </g>
  <g id="g6" transform="matrix(-.43738 0 0 -.5 161.4 278.68)">
   <g id="g5" transform="matrix(0,-1.0825,-1.0825,0,1464.7,557.15)" fill="#363636" stroke-width="1.5">
    <g id="g4" transform="matrix(.00011827 .032712 -.032712 .00011827 18.269 1034.4)" fill="#363636" stroke-width="1.5">
     <path id="path3" d="m345.44 248.29-194.29 194.28c-12.359 12.365-32.397 12.365-44.75 0-12.354-12.354-12.354-32.391 0-44.744l171.91-171.91-171.91-171.9c-12.354-12.359-12.354-32.394 0-44.748 12.354-12.359 32.391-12.359 44.75 0l194.29 194.28c6.177 6.18 9.262 14.271 9.262 22.366 0 8.099-3.091 16.196-9.267 22.373z" fill="#363636" stroke-width="1.5"/>
    </g>
   </g>
  </g>
 </g>
 <path id="path7" d="m7.9937 5.7346c0.79937 0 1.4492 0.23787 1.9498 0.71223 0.5007 0.46557 0.75022 1.0625 0.75022 1.7917 0 0.31623-0.08318 0.63728-0.25007 0.9623-0.1669 0.32502-0.31457 0.55586-0.44633 0.6964-0.12298 0.13176-0.30024 0.30515-0.52863 0.51597l-0.063305 0.06648c-0.53584 0.48313-0.80404 0.96346-0.80404 1.4466v0.52864h-1.2408v-0.62043c0-0.39529 0.08317-0.73185 0.25007-1.013 0.1669-0.28988 0.46151-0.6296 0.88316-1.0161 0.23717-0.21961 0.40351-0.38207 0.50014-0.48748 0.10541-0.1142 0.20726-0.26573 0.30388-0.45899 0.10541-0.20203 0.15827-0.40961 0.15827-0.62043 0-0.40408-0.13215-0.729-0.39568-0.97497-0.25474-0.24596-0.60998-0.37037-1.0668-0.37037-0.75545 0-1.2731 0.42288-1.5542 1.2662l-1.1332-0.47482c0.18447-0.5007 0.50163-0.95004 0.94965-1.3454 0.45679-0.40408 1.0351-0.60461 1.7378-0.60461zm-0.012642 7.9326c0.25474 0 0.46618 0.08704 0.63309 0.26274 0.17568 0.17569 0.26274 0.38712 0.26274 0.63309s-0.08705 0.4574-0.26274 0.63309c-0.1669 0.17568-0.37836 0.26274-0.6331 0.26274s-0.47007-0.08704-0.64576-0.26274c-0.1669-0.17569-0.25007-0.38712-0.25007-0.63309s0.08317-0.4574 0.25007-0.63309c0.17568-0.17568 0.39101-0.26274 0.64576-0.26274z" enable-background="new" fill="#363636" stroke-width="1.2155"/>
 <path id="path1-3" d="m6.2857 0c-0.63314 0-1.1429 0.50971-1.1429 1.1429v3.4286c0 0.63314 0.50972 1.1429 1.1429 1.1429h0.098214a3.1626 3.3181 0 0 1 1.6161-0.47321 3.1626 3.3181 0 0 1 1.625 0.47321h0.089286c0.63314 0 1.1429-0.50972 1.1429-1.1429v-3.4286c0-0.63314-0.50972-1.1429-1.1429-1.1429zm0 1.1429h3.4286v3.4286h-3.4286zm-1.7143 5.7143c-1.2663 0-2.2857 1.0194-2.2857 2.2857v1.1429h-1.1429c-0.63314 0-1.1429 0.50972-1.1429 1.1429v3.4286c0 0.63314 0.50971 1.1429 1.1429 1.1429h3.4286c0.63314 0 1.1429-0.50972 1.1429-1.1429v-3.4286c0-0.63314-0.50972-1.1429-1.1429-1.1429h-1.1429v-1.1429c0-0.63314 0.50972-1.1429 1.1429-1.1429h0.31696a3.1626 3.3181 0 0 1 0.40402-1.1429zm6.1429 0a3.1626 3.3181 0 0 1 0.40402 1.1429h0.31027c0.63314 0 1.1429 0.50972 1.1429 1.1429v1.1429h-1.1429c-0.63314 0-1.1429 0.50972-1.1429 1.1429v3.4286c0 0.63314 0.50972 1.1429 1.1429 1.1429h3.4286c0.63314 0 1.1429-0.50972 1.1429-1.1429v-3.4286c0-0.63314-0.50972-1.1429-1.1429-1.1429h-1.1429v-1.1429c0-1.2663-1.0194-2.2857-2.2857-2.2857zm-9.5714 4.5714h3.4286v3.4286h-3.4286zm10.286 0h3.4286v3.4286h-3.4286z" fill="#363636" opacity=".35" stroke-width="1.1429"/>
</svg>
